X:360
T: Johnny the Tailor's Fancy
T: Quarry Cross Slide #1
S: "Johnny O'Leary of Sliabh Luachra" (#102)
Z: B.Black
L: 1/8
M: 12/8
Q: 350
R: slide
K: G
GA|B3 B/c/BA Bcd edB|G/A/AD A2D ABA GED|
DBD BBA GBd edB|1 A2F DFA G3-G :|2\
A2F DFA G3 GBc||
d2g gfe d2B GBd|e2a a2g faa def|
gfg gfe ded Bcd|1 efg agf g3 g2e :|2\
efg agf g3 g2A ||
